X: 39957
T: Thrashing Of The Oats, The
R: polka
M: 2/4
K: Gmajor
|:G2 AB|cA dB|G2 AB|cA FD|
G2 AB|cA d3/2e/|fd cA|1 BG GD:|2 BG GA||
|:gg a3/2g/|fd de|fd ge|fd ef|
gg a3/2g/|fd d3/2e/|fd cA|1 BG G2:|2 BG GA||
|:B2 AG|Ad d3/2e/|fd cA|BG GA|
B2 AG|Ad d3/2e/|fd cA|1 G2 GA:|2 G2 G2||

